X: 25868
T: Matheu Watson's
R: reel
M: 4/4
K: Eminor
BB|:BE{G/}ED {A/}E{D/}EGG|GAED {G/}E {D/}EGA|B3 B BAAG|GFFE FFBB|
BEED EEGG|GAED A3 A|BBBG AAAG|EFFD EE BB:|
Beed eegg|gaed eega|b3 b baag|gffe ffbb|
beed ee gg|gaed a3 a|bgab aaag|effd eeBB:|

